X: 23137
T: Laying Hen, The
R: jig
M: 6/8
K: Gmajor
GDE GAB|AGE G2D|GAB d2B|AGE DBA|
GDE GAB|AGE G2E|GAB deB|A2A ABA|
GDE G2B|AGE G2D|GAB d2B|AGE GAB|
c2e dBG|AGE GBc|d2B AGE|G3 GAB||
c3 cBG|A3 ABc|d2d edB|AGE DdB|
cdc cBG|ABA ABc|dGg edB|d3 GBc|
deg edB|dBG ABc|dGG edB|AGE D2F|
GDE GDE|GAB dDE|GAB deB|A2A- AGE||

